X:25
T:Egan's
C:Traditional
R:polka
K:D
M:4/4
L:1/8
|: fA BA| fA BA| d2 e>f| ed BA|
! fA BA| fA BA| d2 e>f| ed d2:| ! |:
fa f>e| ed BA| d2 e>f| ed BA|
! fa f>e| ed BA| d2 e>f| ed d2:|
%%footer JamBuddy 2025 - No rights reserved, public domain

